{-
  vvvv Day 6: * 8 beats 4
-}
d1
$ stack [
  "[sd ~]*4" #n "4" #gain 0.8,
  "[~ ho]*4" #n "6 1" #gain 0.8,
  "[bd ~*3]*4" #n "7"
]
# cps 0.52

d1
$ stack [
  "[~ sd ~ sd]*4" #n "7" #gain 0.8,
  "[~ ~ ~ sd]*2" #n "2" #gain 0.8,
  "[~ ~ hc hit]*4" #n "2 1 3 1" #gain 0.8,
  "[~ ho]*4" #n "6" #gain 0.8,
  "[bd ~*3]*4" #n "0",
  "[808 ~*3]*4" #n "2",
  "[~ 808 ~ ~]*2" #n "5",
  "[~ casio*3]" #n "0 1"
]
# cps 0.52
